icons/filled/folder.svg

<svg xmlns="http://www.w3.org/2000/svg" width="24" height="24" viewBox="0 0 24 24" fill="currentColor"><path d="M9 3a1 1 0 0 1 .608 .206l.1 .087l2.706 2.707h6.586a3 3 0 0 1 2.995 2.824l.005 .176v8a3 3 0 0 1 -2.824 2.995l-.176 .005h-14a3 3 0 0 1 -2.995 -2.824l-.005 -.176v-11a3 3 0 0 1 2.824 -2.995l.176 -.005h4z"/></svg>

<svg xmlns="http://www.w3.org/2000/svg" width="24" height="24" fill="currentColor"><path d="M9 3a1 1 0 0 1 .608.206l.1.087L12.414 6H19a3 3 0 0 1 2.995 2.824L22 9v8a3 3 0 0 1-2.824 2.995L19 20H5a3 3 0 0 1-2.995-2.824L2 17V6a3 3 0 0 1 2.824-2.995L5 3z"/></svg>
